X:100
T: Mulvihill's
S: De Danann
Z: B.Black
R: reel
M: 4/4
L: 1/8
K: G
GA | BAGE DB,EB, | DB,DG B2 AB | cBAG FD D2 |\
FEFG A2 GA |
BAGE DB,EB, | DB,DG B2 AB | c2 cB cBAB | cAFD G2 :|
GA | BABd eB (3BBB | eBdB AGED | B,D (3DDD EDB,D |\
GFGA BA A2 |
BABd eB (3BBB | eBdB AGED | B,D (3DDD EGAB |\
cAFD G2 :|
zB | d2 Bd gdBd | edBd gdBd | e2 ^ce ae (3eee |\
afge fde^c |
d2 Bd gdBd | edBd gdBd | c2 cB cBAB | cAFD G2 :|
